src/actions/32/mail-forwarded.svg

<svg xmlns="http://www.w3.org/2000/svg" viewBox="0 0 32 32">
  <defs id="defs3051">
    <style type="text/css" id="current-color-scheme">
      .ColorScheme-Text {
        color:#2e3440;
      }
      </style>
  </defs>
 <path 
     style="fill:currentColor;fill-opacity:1;stroke:none" 
     d="M 5 5 L 5 9 L 2 13 L 2 27 L 19 27 L 19 26 L 3 26 L 3 14 L 5 14 L 5.7871094 14 L 16 19.570312 L 26.212891 14 L 27 14 L 29 14 L 29 16 L 30 16 L 30 13 L 27 9 L 27 5 L 5 5 z M 6 6 L 26 6 L 26 12.974609 L 16 18.429688 L 6 12.974609 L 6 6 z M 8 8 L 8 9 L 24 9 L 24 8 L 8 8 z M 8 11 L 8 12 L 17 12 L 17 11 L 8 11 z M 25.484375 16 L 24.755859 16.726562 L 28.996094 20.955078 L 20 21 L 20 22 L 29.060547 21.982422 L 24.755859 26.273438 L 25.484375 27 L 31 21.5 L 25.484375 16 z "
     class="ColorScheme-Text"
     />
</svg>

<svg viewBox="0 0 32 32" xmlns="http://www.w3.org/2000/svg">
 <defs>
  <style type="text/css">.ColorScheme-Text {
        color:#2e3440;
      }</style>
 </defs>
 <path class="ColorScheme-Text" d="m5 5v4l-3 4v14h17v-1h-16v-12h2 0.78711l10.213 5.5703 10.213-5.5703h0.78711 2v2h1v-3l-3-4v-4h-22zm1 1h20v6.9746l-10 5.4551-10-5.4551v-6.9746zm2 2v1h16v-1h-16zm0 3v1h9v-1h-9zm17.484 5-0.72852 0.72656 4.2402 4.2285-8.9961 0.044922v1l9.0605-0.017578-4.3047 4.291 0.72852 0.72656 5.5156-5.5-5.5156-5.5z" fill="currentColor"/>
</svg>
